X:1
T:Sonata II  1. Affettuoso
T:Sonata II  1. Affettuoso
T:from Three Solos containing twelve easy movements for the German Flute or Violin (London s.d.)
T:Francesco Geminiani (1687 - 1762)
C:Francesco Geminiani (1687 - 1762)
%%score 1 2
L:1/8
M:3/4
K:D
V:1 treble nm="Traverso" snm="Trv."
V:2 bass nm="Viola da gamba" snm="Vla. d. g."
V:1
 d2 | a2 gfed | b2 agfe | c2 d2 z2 | e2 a2 A2 | d4 g2- | g2 f2 ed | cB A2 z2 | B4 e2 | c2 d2 a2 | %10
 g2 A2 g2- | g2 f2 b2 | ^g2 a2 e2 | d2 E2 d2- | d2 c2 e2 | f2 d2 c2 | B2 ^g4 | a2 d2 c2 | B2 b4 | %19
 c'2 ^g2 a2- | ad B4 | A6 | z6 | z2 d2 d'2- | d'2 c'b c'2 | b2 B2 b2- | b2 ag a2- | a2 gf g2- | %28
 g2 f^e f2- | fb ^g4 | f2 a4- | abgf g2- | gafe f2- | fbgfed | (d2 c4) | z agfed | a2 =c4 | %37
 Bbagfe | b2 d4 | cedcde | dfedef | egfefg | fagfga | g6- | g6- | g3 e f2- | fg e4 | dA BA f2 | %48
 eA BA e2 | dG AG e2 | c3 A d2- | dD D2 E2 | D6 |] %53
V:2
 z2 | z6 | z6 | z2 !2!F,2 !0!D2- | D2 !4!C!2!B, !4!C2- | C2 !2!B,!0!A, !2!B,2 | %6
 !0!A,2 !2!D,2 !3!G,2 | z2 !2!A,,2 !0!A,2- | !0!A,2 !3!G,!2!F, !3!G,2- | G,2 !2!F,!0!E, !2!F,2 | %10
 !0!E,2 !1!C,2 !2!A,,2 | !2!D,4 !0!D2- | D2 !4!C!2!B, !4!C2 | !2!B,2 !4!^G,2 !0!E,2 | %14
 !0!A,4 !1!C,2 | !2!D,6 | !0!E,6 | !2!F,6 | !4!^G,6 | !0!A,2 !2!B,2 !4!C2 | !2!D,2 !0!E,2 !2!E,,2 | %21
 !2!A,,4 !0!A,2 | !0!D2 !4!C!2!B,!0!A,!3!G, | !2!F,6 | !2!A,,2 !2!B,4- | B,2 !3!G,!2!F, !3!G,2 | %26
 !2!F,4 !3!^D,2 | !0!E,4 !1!C,2 | !2!D,4 !2!A,,2 | !4!B,,2 !1!C,2 !4!C,,2 | !4!F,,2 !2!F,2 !0!E,2 | %31
 !3!^D,2 z2 !0!E,2 | !1!C,2 z2 !2!D,2 | !0!G,,4 !1!^G,,2 | !2!A,,2 !0!A,2 !3!G,2 | !2!F,2 z2 z2 | %36
 z2 !2!F,2 !2!D,2 | !3!G,2 z2 z2 | z2 !4!^G,2 !0!E,2 | !0!A,4 !3!G,2 | !2!F,2 z4 | !1!C,2 z4 | %42
 !2!D,2 z4 | !0!E,!3!G,!2!F,!0!E,!2!F,!3!G, | !1!C,!0!E,!2!D,!1!C,!2!D,!0!E, | !2!A,,4 !2!D,2 | %46
 !3!G,2 !0!A,2 !2!A,,2 | !2!D,4 !2!D,2 | !1!C,4 !1!C,2 | !4!B,,4 !4!B,,2 | !2!A,,4 !4!F,,2 | %51
 !0!G,,2 !2!A,,4 | !2!D,6 |] %53

